icon/cg/bee.svg

<svg viewBox="0 0 24 24" fill="none" xmlns="http://www.w3.org/2000/svg" height="1em" width="1em">
  <path fill-rule="evenodd" clip-rule="evenodd" d="M17.9513 15.571C17.7695 17.2187 16.9205 18.6654 15.6805 19.635C15.332 20.4692 14.7092 21.1601 13.9247 21.5951C13.7025 22.4574 12.9196 23.0944 11.9879 23.0944C11.0562 23.0944 10.2733 22.4574 10.0511 21.5951C9.26672 21.1602 8.64392 20.4693 8.29547 19.6353C7.05955 18.6691 6.21203 17.229 6.02621 15.5883C4.93527 16.4161 3.37955 16.4118 2.28618 15.4944C1.01696 14.4294 0.851409 12.5371 1.91641 11.2679L6.00966 6.38975C6.27125 3.31753 8.84785 0.905579 11.9878 0.905579C15.1166 0.905579 17.6861 3.30046 17.9631 6.35711L22.0837 11.2679C23.1487 12.5371 22.9831 14.4294 21.7139 15.4944C20.613 16.4182 19.0433 16.4161 17.9513 15.571ZM15.6254 12.9056L13.9472 10.9056H10.0529L8.37467 12.9056H15.6254ZM17.9878 12.6095L19.0195 13.839C19.3745 14.2621 20.0053 14.3173 20.4283 13.9623C20.8514 13.6073 20.9066 12.9765 20.5516 12.5535L17.9878 9.49803V12.6095ZM15.9878 8.90558V6.90558C15.9878 4.69644 14.1969 2.90558 11.9878 2.90558C9.77865 2.90558 7.98779 4.69644 7.98779 6.90558V8.90558H15.9878ZM4.98059 13.839L5.98779 12.6387V9.52726L3.4485 12.5535C3.0935 12.9765 3.14869 13.6073 3.57176 13.9623C3.99483 14.3173 4.62559 14.2621 4.98059 13.839ZM11.9878 18.9056C9.77865 18.9056 7.98779 17.1147 7.98779 14.9056H15.9878C15.9878 17.1147 14.1969 18.9056 11.9878 18.9056Z" fill="currentColor"/>
</svg>

<svg width="24" height="24" fill="none" xmlns="http://www.w3.org/2000/svg"><path fill-rule="evenodd" clip-rule="evenodd" d="M17.951 15.571a5.993 5.993 0 0 1-2.27 4.064 4.016 4.016 0 0 1-1.756 1.96 2 2 0 0 1-3.874 0 4.016 4.016 0 0 1-1.756-1.96 5.993 5.993 0 0 1-2.269-4.047 3.001 3.001 0 0 1-4.11-4.32L6.01 6.39a6 6 0 0 1 11.953-.033l4.12 4.91a3 3 0 0 1-4.132 4.304Zm-2.326-2.665-1.678-2h-3.894l-1.678 2h7.25Zm2.363-.296 1.032 1.229a1 1 0 1 0 1.532-1.286l-2.564-3.055v3.112Zm-2-3.704v-2a4 4 0 0 0-8 0v2h8ZM4.98 13.839l1.007-1.2V9.527l-2.54 3.027a1 1 0 1 0 1.533 1.285Zm7.007 5.067a4 4 0 0 1-4-4h8a4 4 0 0 1-4 4Z" fill="currentColor"/></svg>
